X:122
T:Now you're gane awa
T:O'n a tha thu falbh
R:Slow Air
S:Simon Fraser Collection
N:No.208
O:Scottish
M:3/2
L:1/8
Q:1/4=140
K:D Minor
Ad3 d3c A4|Ff3 f3g a3g|f3e ~d3c A4|A3 ^G A2 ~^c2 d4:|
f3e d3c A4|Ff3 f3g a3g|f3d e3c A4|A3 ^G A2 ^c2 d4|f3d e2c2 A4|
f3e f2g2 a c'2z|a3d d3c A4|A3^G A2 ~^c2 d4||

